app/assets/images/icons/active/guest-services.svg

<?xml version="1.0" encoding="UTF-8" standalone="no"?>
<svg width="32px" height="232px" viewBox="0 0 32 232" version="1.1" xmlns="http://www.w3.org/2000/svg" xmlns:xlink="http://www.w3.org/1999/xlink" xmlns:sketch="http://www.bohemiancoding.com/sketch/ns">
    <title>guest-services</title>
    <description>Created with Sketch (http://www.bohemiancoding.com/sketch)</description>
    <defs></defs>
    <g id="Hotel-facilities" stroke="none" stroke-width="1" fill="none" fill-rule="evenodd" sketch:type="MSPage">
        <path d="M17.2588163,131.418 C17.2588163,131.569 17.1360291,131.692 16.9852904,131.692 L15.0186994,131.692 C14.8659641,131.692 14.7451735,131.569 14.7451735,131.418 C14.7451735,131.269 14.8659641,131.147 15.0186994,131.147 L16.9852904,131.147 C17.1360291,131.147 17.2588163,131.269 17.2588163,131.418 Z M16.0169689,129 L16.0009966,129 L15.9870208,129 C15.6595884,129.002 12.5130428,129.035 12.4850912,129.726 C12.4561414,130.455 15.3201768,129.858 15.3361491,130.986 L16.6658441,130.986 C16.6798199,129.858 19.5458518,130.455 19.5159037,129.726 C19.4889505,129.035 16.3404083,129.002 16.0169689,129 Z M15.4359761,145.11 L3.60648181,145.11 C3.4168106,145.11 3.26307708,145.276 3.26307708,145.467 L3.26307708,146.223 C3.26307708,146.37 2.87674677,146.572 2.56927974,146.738 C1.90642876,147.09 1,147.57 1,148.654 C1,148.844 1.15373351,149 1.34240646,149 L30.6585885,149 C30.8462632,149 30.9999967,148.845 30.9999967,148.654 C31.0019932,147.57 30.0955645,147.09 29.43471,146.738 C29.1242482,146.572 28.7389162,146.37 28.7389162,146.223 L28.7389162,145.455 C28.7389162,145.266 28.5841844,145.11 28.3935149,145.11 L15.4359761,145.11 Z M16.0009966,133.092 C8.98715472,133.092 3.28304248,137.571 3.28304248,143.076 C3.28304248,143.266 3.43877253,143.42 3.62744547,143.42 L28.3735495,143.42 C28.5632207,143.42 28.7169542,143.266 28.7169542,143.076 C28.7169542,137.571 23.0118437,133.092 16.0009966,133.092 Z M16.0009966,132.899 C16.1896696,132.899 16.3773442,132.901 16.5660172,132.902 L16.5660172,131.832 L15.4359761,131.832 L15.4359761,132.902 C15.6226525,132.901 15.8113254,132.899 16.0009966,132.899 Z M16.0009966,132.899" id="guest-services--white" fill="#206FAC" sketch:type="MSShapeGroup"></path>
        <path d="M17.2588163,91.418 C17.2588163,91.569 17.1360291,91.692 16.9852904,91.692 L15.0186994,91.692 C14.8659641,91.692 14.7451735,91.569 14.7451735,91.418 C14.7451735,91.269 14.8659641,91.147 15.0186994,91.147 L16.9852904,91.147 C17.1360291,91.147 17.2588163,91.269 17.2588163,91.418 Z M16.0169689,89 L16.0009966,89 L15.9870208,89 C15.6595884,89.002 12.5130428,89.035 12.4850912,89.726 C12.4561414,90.455 15.3201768,89.858 15.3361491,90.986 L16.6658441,90.986 C16.6798199,89.858 19.5458518,90.455 19.5159037,89.726 C19.4889505,89.035 16.3404083,89.002 16.0169689,89 Z M15.4359761,105.11 L3.60648181,105.11 C3.4168106,105.11 3.26307708,105.276 3.26307708,105.467 L3.26307708,106.223 C3.26307708,106.37 2.87674677,106.572 2.56927974,106.738 C1.90642876,107.09 1,107.57 1,108.654 C1,108.844 1.15373351,109 1.34240646,109 L30.6585885,109 C30.8462632,109 30.9999967,108.845 30.9999967,108.654 C31.0019932,107.57 30.0955645,107.09 29.43471,106.738 C29.1242482,106.572 28.7389162,106.37 28.7389162,106.223 L28.7389162,105.455 C28.7389162,105.266 28.5841844,105.11 28.3935149,105.11 L15.4359761,105.11 Z M16.0009966,93.092 C8.98715472,93.092 3.28304248,97.571 3.28304248,103.076 C3.28304248,103.266 3.43877253,103.42 3.62744547,103.42 L28.3735495,103.42 C28.5632207,103.42 28.7169542,103.266 28.7169542,103.076 C28.7169542,97.571 23.0118437,93.092 16.0009966,93.092 Z M16.0009966,92.899 C16.1896696,92.899 16.3773442,92.901 16.5660172,92.902 L16.5660172,91.832 L15.4359761,91.832 L15.4359761,92.902 C15.6226525,92.901 15.8113254,92.899 16.0009966,92.899 Z M16.0009966,92.899" id="guest-services--white" fill="#FFFFFF" sketch:type="MSShapeGroup"></path>
        <path d="M17.2588163,51.418 C17.2588163,51.569 17.1360291,51.692 16.9852904,51.692 L15.0186994,51.692 C14.8659641,51.692 14.7451735,51.569 14.7451735,51.418 C14.7451735,51.269 14.8659641,51.147 15.0186994,51.147 L16.9852904,51.147 C17.1360291,51.147 17.2588163,51.269 17.2588163,51.418 Z M16.0169689,49 L16.0009966,49 L15.9870208,49 C15.6595884,49.002 12.5130428,49.035 12.4850912,49.726 C12.4561414,50.455 15.3201768,49.858 15.3361491,50.986 L16.6658441,50.986 C16.6798199,49.858 19.5458518,50.455 19.5159037,49.726 C19.4889505,49.035 16.3404083,49.002 16.0169689,49 Z M15.4359761,65.11 L3.60648181,65.11 C3.4168106,65.11 3.26307708,65.276 3.26307708,65.467 L3.26307708,66.223 C3.26307708,66.37 2.87674677,66.572 2.56927974,66.738 C1.90642876,67.09 1,67.57 1,68.654 C1,68.844 1.15373351,69 1.34240646,69 L30.6585885,69 C30.8462632,69 30.9999967,68.845 30.9999967,68.654 C31.0019932,67.57 30.0955645,67.09 29.43471,66.738 C29.1242482,66.572 28.7389162,66.37 28.7389162,66.223 L28.7389162,65.455 C28.7389162,65.266 28.5841844,65.11 28.3935149,65.11 L15.4359761,65.11 Z M16.0009966,53.092 C8.98715472,53.092 3.28304248,57.571 3.28304248,63.076 C3.28304248,63.266 3.43877253,63.42 3.62744547,63.42 L28.3735495,63.42 C28.5632207,63.42 28.7169542,63.266 28.7169542,63.076 C28.7169542,57.571 23.0118437,53.092 16.0009966,53.092 Z M16.0009966,52.899 C16.1896696,52.899 16.3773442,52.901 16.5660172,52.902 L16.5660172,51.832 L15.4359761,51.832 L15.4359761,52.902 C15.6226525,52.901 15.8113254,52.899 16.0009966,52.899 Z M16.0009966,52.899" id="guest-services--light-grey" fill="#67737B" sketch:type="MSShapeGroup"></path>
        <path d="M17.2588163,11.418 C17.2588163,11.569 17.1360291,11.692 16.9852904,11.692 L15.0186994,11.692 C14.8659641,11.692 14.7451735,11.569 14.7451735,11.418 C14.7451735,11.269 14.8659641,11.147 15.0186994,11.147 L16.9852904,11.147 C17.1360291,11.147 17.2588163,11.269 17.2588163,11.418 Z M16.0169689,9 L16.0009966,9 L15.9870208,9 C15.6595884,9.002 12.5130428,9.035 12.4850912,9.726 C12.4561414,10.455 15.3201768,9.858 15.3361491,10.986 L16.6658441,10.986 C16.6798199,9.858 19.5458518,10.455 19.5159037,9.726 C19.4889505,9.035 16.3404083,9.002 16.0169689,9 Z M15.4359761,25.11 L3.60648181,25.11 C3.4168106,25.11 3.26307708,25.276 3.26307708,25.467 L3.26307708,26.223 C3.26307708,26.37 2.87674677,26.572 2.56927974,26.738 C1.90642876,27.09 1,27.57 1,28.654 C1,28.844 1.15373351,29 1.34240646,29 L30.6585885,29 C30.8462632,29 30.9999967,28.845 30.9999967,28.654 C31.0019932,27.57 30.0955645,27.09 29.43471,26.738 C29.1242482,26.572 28.7389162,26.37 28.7389162,26.223 L28.7389162,25.455 C28.7389162,25.266 28.5841844,25.11 28.3935149,25.11 L15.4359761,25.11 Z M16.0009966,13.092 C8.98715472,13.092 3.28304248,17.571 3.28304248,23.076 C3.28304248,23.266 3.43877253,23.42 3.62744547,23.42 L28.3735495,23.42 C28.5632207,23.42 28.7169542,23.266 28.7169542,23.076 C28.7169542,17.571 23.0118437,13.092 16.0009966,13.092 Z M16.0009966,12.899 C16.1896696,12.899 16.3773442,12.901 16.5660172,12.902 L16.5660172,11.832 L15.4359761,11.832 L15.4359761,12.902 C15.6226525,12.901 15.8113254,12.899 16.0009966,12.899 Z M16.0009966,12.899" id="guest-services--dark-grey" fill="#3A434E" sketch:type="MSShapeGroup"></path>
    </g>
</svg>

<svg width="32" height="232" viewBox="0 0 32 232" xmlns="http://www.w3.org/2000/svg" xmlns:sketch="http://www.bohemiancoding.com/sketch/ns"><title>guest-services</title><g sketch:type="MSPage" fill="none"><path d="M17.259 131.418c0 .151-.123.274-.274.274h-1.967c-.153 0-.274-.123-.274-.274 0-.149.121-.271.274-.271h1.967c.151 0 .274.122.274.271zm-1.242-2.418h-.03c-.327.002-3.474.035-3.502.726-.029.729 2.835.132 2.851 1.26h1.33c.014-1.128 2.88-.531 2.85-1.26-.027-.691-3.175-.724-3.499-.726zm-.581 16.11h-11.829c-.19 0-.343.166-.343.357v.756c0 .147-.386.349-.694.515-.663.352-1.569.832-1.569 1.916 0 .19.154.346.342.346h29.316c.188 0 .341-.155.341-.346.002-1.084-.904-1.564-1.565-1.916-.31-.166-.696-.368-.696-.515v-.768c0-.189-.155-.345-.345-.345h-12.958zm.565-12.018c-7.014 0-12.718 4.479-12.718 9.984 0 .19.156.344.344.344h24.746c.19 0 .343-.154.343-.344 0-5.505-5.705-9.984-12.716-9.984zm0-.193l.565.003v-1.07h-1.13v1.07l.565-.003zm0 0" id="guest-services--white" fill="#206FAC" sketch:type="MSShapeGroup"/><path d="M17.259 91.418c0 .151-.123.274-.274.274h-1.967c-.153 0-.274-.123-.274-.274 0-.149.121-.271.274-.271h1.967c.151 0 .274.122.274.271zm-1.242-2.418h-.03c-.327.002-3.474.035-3.502.726-.029.729 2.835.132 2.851 1.26h1.33c.014-1.128 2.88-.531 2.85-1.26-.027-.691-3.175-.724-3.499-.726zm-.581 16.11h-11.829c-.19 0-.343.166-.343.357v.756c0 .147-.386.349-.694.515-.663.352-1.569.832-1.569 1.916 0 .19.154.346.342.346h29.316c.188 0 .341-.155.341-.346.002-1.084-.904-1.564-1.565-1.916-.31-.166-.696-.368-.696-.515v-.768c0-.189-.155-.345-.345-.345h-12.958zm.565-12.018c-7.014 0-12.718 4.479-12.718 9.984 0 .19.156.344.344.344h24.746c.19 0 .343-.154.343-.344 0-5.505-5.705-9.984-12.716-9.984zm0-.193l.565.003v-1.07h-1.13v1.07l.565-.003zm0 0" fill="#fff" sketch:type="MSShapeGroup"/><path d="M17.259 51.418c0 .151-.123.274-.274.274h-1.967c-.153 0-.274-.123-.274-.274 0-.149.121-.271.274-.271h1.967c.151 0 .274.122.274.271zm-1.242-2.418h-.03c-.327.002-3.474.035-3.502.726-.029.729 2.835.132 2.851 1.26h1.33c.014-1.128 2.88-.531 2.85-1.26-.027-.691-3.175-.724-3.499-.726zm-.581 16.11h-11.829c-.19 0-.343.166-.343.357v.756c0 .147-.386.349-.694.515-.663.352-1.569.832-1.569 1.916 0 .19.154.346.342.346h29.316c.188 0 .341-.155.341-.346.002-1.084-.904-1.564-1.565-1.916-.31-.166-.696-.368-.696-.515v-.768c0-.189-.155-.345-.345-.345h-12.958zm.565-12.018c-7.014 0-12.718 4.479-12.718 9.984 0 .19.156.344.344.344h24.746c.19 0 .343-.154.343-.344 0-5.505-5.705-9.984-12.716-9.984zm0-.193l.565.003v-1.07h-1.13v1.07l.565-.003zm0 0" fill="#67737B" sketch:type="MSShapeGroup"/><path d="M17.259 11.418c0 .151-.123.274-.274.274h-1.967c-.153 0-.274-.123-.274-.274 0-.149.121-.271.274-.271h1.967c.151 0 .274.122.274.271zm-1.242-2.418h-.03c-.327.002-3.474.035-3.502.726-.029.729 2.835.132 2.851 1.26h1.33c.014-1.128 2.88-.531 2.85-1.26-.027-.691-3.175-.724-3.499-.726zm-.581 16.11h-11.829c-.19 0-.343.166-.343.357v.756c0 .147-.386.349-.694.515-.663.352-1.569.832-1.569 1.916 0 .19.154.346.342.346h29.316c.188 0 .341-.155.341-.346.002-1.084-.904-1.564-1.565-1.916-.31-.166-.696-.368-.696-.515v-.768c0-.189-.155-.345-.345-.345h-12.958zm.565-12.018c-7.014 0-12.718 4.479-12.718 9.984 0 .19.156.344.344.344h24.746c.19 0 .343-.154.343-.344 0-5.505-5.705-9.984-12.716-9.984zm0-.193l.565.003v-1.07h-1.13v1.07l.565-.003zm0 0" fill="#3A434E" sketch:type="MSShapeGroup"/></g></svg>
